icons/folder-arrow-right-outline.svg

<svg xmlns="http://www.w3.org/2000/svg" width="24" height="24" viewBox="0 0 24 24">
  <path d="M11,4 C11.2652165,4 11.5195704,4.10535684 11.7071068,4.29289322 L11.7071068,4.29289322 L13.415,6 L19,6 C20.5976809,6 21.9036609,7.24891996 21.9949073,8.82372721 L21.9949073,8.82372721 L22,9 L22,17 C22,18.6568542 20.6568542,20 19,20 L19,20 L5,20 C3.34314575,20 2,18.6568542 2,17 L2,17 L2,7 C2,5.34314575 3.34314575,4 5,4 L5,4 Z M10.585,6 L5,6 C4.44771525,6 4,6.44771525 4,7 L4,7 L4,17 C4,17.5522847 4.44771525,18 5,18 L5,18 L19,18 C19.5522847,18 20,17.5522847 20,17 L20,17 L20,9 C20,8.44771525 19.5522847,8 19,8 L19,8 L13,8 C12.7347835,8 12.4804296,7.89464316 12.2928932,7.70710678 L12.2928932,7.70710678 L10.585,6 Z M15.767,12.359 L15.7803112,12.374551 L15.7837744,12.3788907 L15.779,12.374 L15.8036654,12.4046934 L15.8036654,12.4046934 C15.8215099,12.4288693 15.8382813,12.453725 15.8539326,12.4793398 L15.8753288,12.5159379 L15.8753288,12.5159379 C15.8862061,12.5357061 15.8966234,12.5561086 15.9063462,12.5769009 L15.9287745,12.628664 L15.9287745,12.628664 C15.9366843,12.6484208 15.9438775,12.6682023 15.9504533,12.6882636 C15.9552713,12.7031487 15.9599023,12.7185367 15.9641549,12.734007 C15.9701664,12.7555635 15.9753602,12.7772539 15.9798348,12.7992059 C15.9832978,12.8166247 15.9863719,12.834051 15.9889822,12.8515331 L15.996002,12.909968 L15.996002,12.909968 C15.99693,12.9208131 15.9976744,12.9308872 15.9982669,12.9409686 L15.9998198,12.980824 L16,13 L16,13 L15.999,13.019 L15.9982669,13.0590314 L15.997,13.075 L15.997,13.059 L15.996,13.081 L15.9889807,13.1489612 L15.9889807,13.1489612 C15.9863719,13.165949 15.9832978,13.1833753 15.9797599,13.2007258 C15.9753602,13.2227461 15.9701664,13.2444365 15.964279,13.2658396 C15.9599023,13.2814633 15.9552713,13.2968513 15.9502619,13.3121425 C15.9438775,13.3317977 15.9366843,13.3515792 15.928896,13.3710585 L15.9063266,13.4232215 L15.9063266,13.4232215 C15.8966234,13.4438914 15.8862061,13.4642939 15.8751242,13.484277 C15.8685012,13.4963944 15.8613931,13.5086131 15.8540045,13.5207088 C15.8382813,13.546275 15.8215099,13.5711307 15.8036865,13.5951593 C15.7992821,13.6012086 15.7948255,13.6070733 15.7902954,13.6128994 C15.7849289,13.6196628 15.7826279,13.6225624 15.7803112,13.625449 L15.7071068,13.7071068 L12.7071068,16.7071068 C12.3165825,17.0976311 11.6834175,17.0976311 11.2928932,16.7071068 C10.9324093,16.3466228 10.9046797,15.7793918 11.2097046,15.3871006 L11.2928932,15.2928932 L12.585,14 L9,14 C8.44771525,14 8,13.5522847 8,13 C8,12.4871642 8.38604019,12.0644928 8.88337887,12.0067277 L9,12 L12.585,12 L11.2928932,10.7071068 C10.9023689,10.3165825 10.9023689,9.68341751 11.2928932,9.29289322 C11.6533772,8.93240926 12.2206082,8.90467972 12.6128994,9.20970461 L12.7071068,9.29289322 L15.7071068,12.2928932 L15.775,12.37 L15.767,12.359 Z"/>
</svg>

<svg xmlns="http://www.w3.org/2000/svg" viewBox="0 0 24 24">
  <path d="M11 4a1 1 0 0 1 .7.3L13.42 6H19a3 3 0 0 1 3 2.82V17a3 3 0 0 1-3 3H5a3 3 0 0 1-3-3V7a3 3 0 0 1 3-3zm-.41 2H5a1 1 0 0 0-1 1v10a1 1 0 0 0 1 1h14a1 1 0 0 0 1-1V9a1 1 0 0 0-1-1h-6a1 1 0 0 1-.7-.3L10.58 6zm5.18 6.36.01.01.02.03.05.08.03.04.03.06.02.05a.99.99 0 0 1 .06.22v.09l.01.04v.09-.01.02l-.01.07a1.08 1.08 0 0 1-.06.22l-.02.05a1.02 1.02 0 0 1-.13.2l-.07.09-3 3a1 1 0 0 1-1.5-1.32l.08-.1L12.6 14H9a1 1 0 0 1-.12-2h3.71l-1.3-1.3a1 1 0 0 1 1.32-1.49l.1.08 3 3 .06.08v-.01z"/>
</svg>
